X:1
T:Title
%%score { ( 1 3 ) | ( 2 4 ) }
L:1/8
Q:1/4=112
M:3/4
K:Bb
V:1 treble nm="Grand Piano"
V:3 treble 
V:2 bass 
V:4 bass 
V:1
 [DF]2 [DB]2 [Ec]2 | [Fd]4 [B,FB]2 | [B,GB]6 | [B,EG]6 | [A,F]2 [B,FG]2 [CFA]2 | [B,FB]4 [B,D]2 | %6
w: Hubert~P.~Main * *||||||
 [A,CF]6 | [Fd]2 [Ec]2 [DB]2 | [DF]4 [FB]2 | B6 | G6 | F2 A2 B2 | c4 d2 | [DB]6 | c2 A2 B2 | %15
w: |||||||||
 c4 F2 | [CA]4 G2 | F6 | [Fd]2 [Fd]2 [Fd]2 | [Ff]4 [Fd]2 | [Fc]6 | [Fd]2 [Ec]2 [DB]2 | %22
w: |||||||
 [DF]4 [FB]2 | B6 | G6 | F2 A2 B2 | c4 d2 |[M:7/4] [DB]6 z2 z2 z4 |] %28
w: ||||||
V:2
 [B,,B,]2 [B,,B,]2 [B,,B,]2 | [B,,B,]4 D,2 | E,6 | E,6 | F,2 F,2 E,2 | D,4 G,2 | F,6 | %7
 [B,,B,]2 [B,,F,]2 [B,,F,]2 | [B,,B,]4 [D,_A,]2 | [E,G,E]6 | [E,B,E]6 | [F,B,D]2 [F,CE]2 [F,B,D]2 | %12
 [F,A,E]4 [F,A,F]2 | [B,,B,]6 | [F,A,F]2 [F,F]2 [F,G,F]2 | [F,A,F]4 [D,A,]2 | z2 z2 B,2 | [F,A,]6 | %18
 [B,,B,]2 [B,,B,]2 [B,,B,]2 | [B,,D]4 [B,,B,]2 | [F,A,]6 | [B,,B,]2 [B,,F,]2 [B,,F,]2 | %22
 [B,,B,]4 [D,_A,]2 | [E,G,E]6 | [E,B,E]6 | [F,B,D]2 [F,CE]2 [F,B,D]2 | [F,A,E]4 [F,A,F]2 | %27
[M:7/4] [B,,B,]6 z2 z2 z4 |] %28
V:3
 x6 | x6 | x6 | x6 | x6 | x6 | x6 | x6 | x6 | x6 | x6 | x6 | x6 | x6 | x6 | x6 | =E6 | x6 | x6 | %19
 x6 | x6 | x6 | x6 | x6 | x6 | x6 | x6 |[M:7/4] x14 |] %28
V:4
 x6 | x6 | x6 | x6 | x6 | x6 | x6 | x6 | x6 | x6 | x6 | x6 | x6 | x6 | x6 | x6 | C,6 | x6 | x6 | %19
 x6 | x6 | x6 | x6 | x6 | x6 | x6 | x6 |[M:7/4] x14 |] %28

